web/packages/design/src/ResourceIcon/assets/neverbounce-light.svg

<svg width="72" height="72" viewBox="0 0 72 72" fill="none" xmlns="http://www.w3.org/2000/svg">
<g clip-path="url(#clip0_16907_11771)">
<path fill-rule="evenodd" clip-rule="evenodd" d="M32.7099 19.6621L29.6445 24.8446H5.60844V30.3535H26.4585L23.6137 35.2567H5.60844V47.1163H16.4757L13.583 52.2987H0V19.6621H32.7099Z" fill="#030021"/>
<path fill-rule="evenodd" clip-rule="evenodd" d="M37.6811 19.6621L34.7156 24.8446L64.1395 24.8751L41.916 35.98L31.0426 30.8759L28.1541 35.7703L41.8952 41.8916L66.5119 29.6237L66.591 47.1163H21.3324L18.3877 52.2987H71.9997V19.6621H37.6811Z" fill="#1E9FC4"/>
</g>
<defs>
<clipPath id="clip0_16907_11771">
<rect width="72" height="72" fill="white" transform="translate(0 0.00195312)"/>
</clipPath>
</defs>
</svg>

<svg xmlns="http://www.w3.org/2000/svg" width="72" height="72" fill="none" viewBox="0 0 72 72"><g fill-rule="evenodd" clip-path="url(#clip0_16907_11771)" clip-rule="evenodd"><path fill="#030021" d="m32.71 19.662-3.065 5.183H5.608v5.509h20.85l-2.844 4.903H5.608v11.86h10.868l-2.893 5.182H0V19.662z"/><path fill="#1e9fc4" d="m37.681 19.662-2.965 5.183 29.423.03L41.917 35.98l-10.873-5.104-2.889 4.894 13.741 6.122 24.617-12.268.079 17.492h-45.26L18.388 52.3H72V19.662z"/></g><defs><clipPath id="clip0_16907_11771"><path fill="#fff" d="M0 .002h72v72H0z"/></clipPath></defs></svg>
